;[gain=1.0;name=so88e011]
#opll_mode 0
#tempo 98
#title { "Underground Dungeon (The Floodgate of Lucifer) / Music from Sorcerian / Copyright (c) Nihon Falcom Corporation" }

@v15 = {
;       TL FB
        12, 0,
; AR DR SL RR KL MT AM VB EG KR DT
  15, 3, 1, 0, 0, 1, 0, 0, 0, 0, 0,
  15, 0, 0, 6, 0, 2, 0, 0, 1, 0, 0 }
  
@v16 = {
;       TL FB
         8, 0,
; AR DR SL RR KL MT AM VB EG KR DT
  15, 4,15, 0, 0, 4, 0, 0, 0, 0, 0,
  15, 4, 0, 6, 0, 8, 0, 0, 1, 0, 0 }

@v17 = {
;       TL FB
        28, 2,
; AR DR SL RR KL MT AM VB EG KR DT
  15, 6, 1, 2, 0, 5, 0, 0, 0, 0, 0,
  15, 4, 2, 5, 0, 0, 0, 0, 1, 0, 0 }

@v18 = {
;     TL FB
      21, 6,
; AR DR SL RR KL MT AM VB EG KR DT
  15, 7, 3, 0, 0, 3, 0, 0, 0, 0, 1,
   7, 0, 0,11, 0, 1, 0, 0, 1, 0, 1 }

@e0={0,0,@3f@8f}
@e1={0,0,@13c@9f}
@e2={0,0,@14f@9f}

;9ABCDEFG !

9A q8 [;L
9A hf
9 v9 @6  o3 \1
A v9 @15 o3
9A r48
9A [e12e12r12>d24e24<e24e24g12<b12>d12]2
9A e12e12r12>d24e24<e24e24g12<b12>d16
9A [
9 v10 @6  o6
A v10 @15 o6 \1
9A r12 d12d12d12d12r8
9  @16   h20,5,0,1 o4 
A  @3@e0 h20,5,0,1 o4 \0 >
9A d8e4&e12<a6b6>d4&d12c+6<a6b1&b4&b12>e4&e12
9A <a6b6>d4&d12f+6d6e1&e6
A <
9 @2  h30,4,0,1 o7 
A @17 h30,4,0,1 o7 \1
9A ) e6d4&d12<a2&a6>c4&c12<b4&b12e4&e12e6f+6g6b6>d4&d12<a4&a12>g4&g12f+6d6e2&e6 (
9A ]2
9 v9 @6 o6
A v9 @15 o6 \1 
9A r12d12d12d12d12r8

9 @8@e1 h1,3,0,1 v11 \0
A @9@e2 h1,3,0,1 v12 \1
9A <g8
9A [[e24f+24g24]4f+24e24d24f+24]2
9A [[c24d24e24]4d24c24<b24a24>]2
9A [d24e24f+24]4
9A a24g24f+24g24a24b24g24a24f+24g24e24f+24d24e24c24d24<b24a24g24f+24
9A ]0

@e8={0,0,@14fe90}

DE q8[;L
D v11@13   o3
E v11@1@e8 o3
DE [e12e24e24a24b24>d24e24<e48r48e24g24r24<b12>d12]3
DE [r12d12d12d12d12r12<b24>d8
DE [e12e24e24a24b24>d24e24<]7>d24e24<a24b24g24a24f+24g24
DE [e12e24e24a24b24>d24e24<]7>d24e24<a24b24g24a24f+24e24
DE [d12d24d24g24a24>c24d24<]3>c24d24<g24a24f+24g24d24e24
DE [e12e24e24a24b24>d24e24<]3>d24e24<a24b24g24a24f+24g24
DE [d12d24d24g24a24>c24d24<]4
DE [e12e24e24a24b24>d24e24<]2]2r12d12d12d12d12r12<b24>d8
DE [e12e24e24a24b24>d24e24d24e24<a24b24g24a24f+24g24]2
DE [c12c24c24g24a24f+24g24e24f+24d24e24c24d24<b24g24>]2
DE [d12d24d24a24b24g24a24f+24g24e24f+24d24e24d24<a24>]2
DE ]0

F q8 y14,33 [;L
F v12h1,25,0,-5 o3soq2
F [c24r8>f24r8<c24r24c24r24>f24r8<]2
F c24r8>f24r8<c24r24c24r24>f24f24f24f24
F [
F r12 [<c24r24>]3 b24b24g24r24d24r24d24d24
F [<c24r8>f24r8<c24r24c24r24>f24r8]4
F [<c24r8>f24r8<c24r24c24r24>f24r8]3
F <c24r8>f24r8<c24r24c24r24>f24r24f24f24
F [<c24r8>f24r12<c24c24r24c24r24>f24r24<c24r24>]4
F [<c24r8>f24r12<c24c24r24c24r24>f24r24<c24r24>]2
F <c24r8>f24r12<c24c24r24c24r24>f24f24f24f24
F ]2
F r12
F [<c24r24>]3[f24]8
F [<c24r8>f24r12<c24c24r24c24r24>f24<c24r24c24>]3
F <c24r8>f24r12<c24c24r24c24r24>
F f24r24f24f24<c24r8>f24r12<c24
F c24r24c24r24>f24<c24r24c24c24
F r24>f24r24b24g24<c24r24>f24r24b24b24g24g24e24e24
F ]0

G q8 [;L
G v10@14o1
G [c24r8c24r8c24r24c24r24c24r8]2
G c24r8c24r8c24r24c24r24c24c24c24c24
G [
G r12 [c24r24]3 c24c24c24r24c24r24c24c24
G [c24r8c24r8c24r24c24r24c24r8]4
G [c24r8c24r8c24r24c24r24c24r8]3
G c24r8c24r8c24r24c24r24c24r24c24c24
G [c24r8c24r12c24c24r24c24r24c24r24c24r24]4
G [c24r8c24r12c24c24r24c24r24c24r24c24r24]2
G c24r8c24r12c24c24r24c24r24c24c24c24c24
G ]2
G r12
G [c24r24]3[c24]8
G [c24r8c24r12c24c24r24c24r24c24c24r24c24]3
G c24r8c24r12c24c24r24c24r24
G c24r24c24c24c24r8c24r12c24
G c24r24c24r24c24c24r24c24c24
G r24c24r24c24c24c24r24c24r24c24c24c24c24c24c24
G ]0

@e9={0,0,fdc0=172}
@e10={0,0,fc0=28}
@e11={0,0,f0=120}

123 v11

1 q8 [;L
1 @9 o5hf
1 [e12e12r12>d24e24<e24e24g12<b12>d12]3
1 [r12<a12a12a12a12r8a8
1 @10 hf ( 
1 [r12g12r24g8r24g12r24g12g12]3
1 r12g12r24g8>>d24e24<a24b24g24a24f+24g24
1 [r12<g12r24g8r24g12r24g12g12>]3
1 r12<g12r24g8>>d24e24<a24b24g24a24f+24g24
1 @11 h1,2,0,1 (
1 [a24f+24d24<a24b24>d24f+24a24]3>
1 e24f+24d24e24c24d24<b24>c24
1 [<b24g24e24<b24>d24e24g24b24>]3
1 f+24g24e24f+24d24e24c24d24
1 [a24f+24d24<a24b24>d24f+24a24]4
1 g24<b24>e24<b24>g24f+24e24f+24e24
1 f+24g24a24g24f+24e24f+24))<
1 ]2
1 r12a12a12a12a12r8a8
1 ( @9hf
1 [<e12e12r12>d24e24<e24e24g12<b12>d12>]4
1 [<f+12f+12r12d24e24f+24f+24a12f+12d12>]2
1 )
1 ]0

2 (2 q8 \1[;L
2 @9 r24o5
2 [e12e12r12>d24e24<e24e24g12<b12>d12]2
2 e12e12r12>d24e24<e24e24g12<b12>d24
2 [r12<f+12f+12f+12f+12r8f+8
2 @10 ([r12b12r24b8r24b12r24b12b12]3
2 r12b12r24b8>b24>c24<f+24g24d24e24d24e24
2 [r12<b12r24b8r24b12r24b12b12>]3
2 r12<b12r24b8>b24>c24<f+24g24d24e24d24e24
2 @11((r16[a24f+24d24<a24b24>d24f+24a24]3>
2 e24f+24d24e24c24d24<b24>c24
2 [<b24g24e24<b24>d24e24g24b24>]3
2 f+24g24e24f+24d24e24c24d24
2 [a24f+24d24<a24b24>d24f+24a24]4
2 g24<b24>e24<b24>g24f+24e24f+24e24f+24g24a24g24f+24e48)))<
2 ]2
2 r12f+12f+12f+12f+12r8f+8
2 ( @9r24
2 [<e12e12r12>d24e24<e24e24g12<b12>d12>]4<
2 f+12f+12r12d24e24f+24f+24a12f+12d12
2 f+12f+12r12d24e24f+24f+24a12f+12d24
2 )
2 ]0

@e12={2,0,e0=3} ;HH
@e13={2,25,fc0=96} ;CYM
@e14={2,10,e} ;SD

3 (2 q8[;
3 [@12c24c24c24c24@14c12@12c24c24]5 
3 c24c24c24c24@14c12c12
3 @12 [r12[c24r24]4 @13))c4((
3 @12 [c24c24c24c24@14c12@12c24c24]8
3 [c24c24c24c24@14c12@12c24c24]7
3 c24c24c24c24@14c12@12c24c24
3 [c12c24c24@14c12@12c24c24]8
3 [c12c24c24@14c12@12c24c24]6]2
3 r12[c24r24]4))@13c4(( 
3 [c24c24c24c24@14c12@12c24c24]8
3 [c24c24c24c24@14c12@12c24c24]2
3 c24c24@14c12@12c24c24c24c24@14c12@12[c24]6
3 ]0
