;[gain=1.0;name=so88e003]
#opll_mode 0
#tempo 104
#title { "Town -Pentawa II- / Music from Sorcerian / Copyright (c) Nihon Falcom Corporation"}

@v15 = { ; Bell
;       TL FB
        41, 0,
; AR DR SL RR KL MT AM VB EG KR DT
  15, 3,14, 4, 0,14, 0, 0, 1, 0, 0,
  13, 4,15, 7, 0, 4, 0, 0, 1, 0, 0 }

@v16 = { ; Lead A
;       TL FB
        12, 0,
; AR DR SL RR KL MT AM VB EG KR DT
  15, 3, 1, 3, 0, 1, 0, 0, 1, 0, 0,
  13,15, 0, 6, 0, 2, 0, 0, 1, 0, 0 }

@v17 = { ; Lead B slot 1-2
;       TL FB
        22, 5,
; AR DR SL RR KL MT AM VB EG KR DT
  15, 0, 0, 0, 0, 2, 0, 0, 0, 0, 0,
   8, 5, 1, 6, 0, 8, 0, 0, 1, 0, 0 }

@v18 = { ; 
;       TL FB
        35, 0,
; AR DR SL RR KL MT AM VB EG KR DT
   9, 0, 0, 6, 0, 2, 0, 0, 1, 0, 0,
   9, 0, 0, 6, 0, 2, 0, 0, 1, 0, 0 }

;9ABCDEFG !

9A l8 q8
9 @2  v12 r8 h10,244,0,-1
A @15 v12 r8 h10,244,0,-1 \1
9A o4 r2g4&g [r2]3
9A [;L
9A o5 h15,3,0,2
9 @6  v10 \0 >
A @16 v10 \1
9A [e4b4>d4&df+16e2&e16e24d24<b24>d24
9A <b24a24b24a24g24a24g24e4&e24d16e16g16f+4&f+16
9A a6&a48g4&g16b6&b48a4&a16>c6&c48
9A <b2&b16>b2d+16f+16d+16f+6&f+48g6&g48g+6&g+48a4<
9A ]2
9A r16 
9 @6  v10 o4 \0 >>
A @17 v10 o4 \1
9A g16f+16e16f+16g16a16a+32&b12&b%2>e16<b16
9A a16a+64&b32.a16g16e16f+6&f+48a6&a48>d6&d48
9A f+6&f+48g16f+16g16a16br16ba16g16f+16ar16a
9A g16f+16e16gr16ge16d+16e16e16&f64&f+4&f+
9A r24r%1r16 <g16f+16e16<b4r16>g16f+16g16a4b16rb16
9A r8b2r8r6r48
9 <<
9 @18 v11 h15,5,0,2 \2
A @18 v11 h15,5,0,2
9A a+64&b2&b4&b12&
9A b%5e16d16e16<a+64&b2&b6&b%13f+6&f+48g6&
9A g48g+6&g+48a6&a48a+4b16>d16e16f+16b16a+16a4&
9A a6&a48g16f+16g16<b6&b48>a+64&b2&b4&
9A b12&b%5e16d16e16<a+64&b2&b6&b%13f+6&f+48
9A g6&g48g+6&g+48a6&a48a+4>f+6&f+48g6&g48
9A g+6&g+48a6&a48a+4
9 @6  v10 \0 h15,3,0,2 >>
A @17 v10 \1 h15,3,0,2
9A b6&b48>b2&b16b12
9A a12g12f+2&f+4f+12e12d12e2&e4e12d+12e12f+1r16
9A <g16f+16e16f+16g16a16a+32&b12&b%2>e16<b16a16a+64&
9A b24&b%1a16g16e16f+6&f+48a6&a48>d6&d48
9A f+6&f+48g16f+16g16a16br16ba16g16f+16ar16ag16
9A f+16e16gr16ge16d+16e16e16&f64&f+4&f+r24
9A r%1r16<g16f+16e16<b4r16>g16f+16g16a4b16rb16rb2
9A r
9A ]0

@e0={0,0,@14f0=8}

BC l16 q8 
B @14 v10 o3 @e0
C @13 v12 o3
BC r2
BC e16r16e16r16<a16b16>d16e8<g16a16g8a16
BC >c16<a16b16>b16<b16>d+8<b16>e8<b16>f8<b16>f+4 
BC [;L 
BC [e16r16e16r16<a16b16>d16e16&]7 e16r16e16r16<a16>c16<a16b16& 
BC [b16>b16<b16>d+8<b16>e8<b16>f8<b16>f+4<]2 >
BC [e16r16e16r16<a16b16>d16e16&]7 e16r16e16r16<a16>c16<a16b16& 
BC [b16>b16<b16>d+8<b16>e8<b16>f8<b16>f+4<]2 >
BC [e16r16e16r16<a16b16>d16e16&]2 
BC [d16r16d16r16<g16a16>c16d16&]2 
BC c16r16c16r16<a16>c16c+16d16& 
BC d16r16d16r16 g16f+16g16g+16 <
BC a16r16a16r16>c16<a16b16>c16 <
BC b16r16b16r16>b16<b16>c+16d+16
BC e16r16e16r16<a16b16>d16e16 
BC d16r16d16r16 g16f+16g16a16 <
BC b16r8b16r8b6&b48b16b16b16b16b16b16b16>
BC e16b16>d16e4&e16&e16f+16e16d16e16d16<a16a+16
BC b16e16d16e6&e48<e16e16>e6&e48f+6&f+48a8g16f+16e16g16f+16
BC e16g16a16a+16b16>e16f+16a16g8<b16e16d16<b16a16>e16d16
BC <b16a16>e16d16<a16a+16b16>e16f+16g16e16b16>d16e4&e8
BC f+16e16d16e16d16<a16a+16b16e16d16e6&e48<e16e16
BC >e6&e48f+6&f+48a8
BC g16f+16d16e16<b8>g16f+16
BC d16e16<b8>g16f+16d16e16
BC f+16<b16b16>g16<b16b16>g+16<b16
BC b16>a16<b16b16>a+16<b16b16b16> 
BC [e16r16e16r16<a16b16>d16e16&]2 
BC [d16r16d16r16<g16a16>c16d16&]2 <
BC [a16r16a16r16d16e16g16a16&]2 
BC b16r16b16r16b16f+16a16b16b16r16b16r16>b16<b16>c+16d+16 
BC [e16r16e16r16<a16b16>d16e16&]2 
BC [d16r16d16r16<g16a16>c16d16&]2 
BC c16r16c16r16<a16>c16c+16d8r16d16r16g16f+16g16g+16<a16r16a16r16>c16<a16
BC b16>c16<b16r16b16r16>b16<b16>c+16d+16e16r16e16r16<a16b16
BC >d16e16d16r16d16r16g16f+16g16a16<b16r8b16r8b6&
BC b48b16b16b16b16b16b16b16 >
BC ]0

F l16 q8 h1,36,0,-25 v11 y14,33 soq1
F r2 o3 [g16r16>a8<]7 > a16a16a16a16 
F [;L 
F [<g16r16>a16r16]23 <g16r16>a16a16 
F [<g16r16>a16r16]23 <g16r16>a16a16 
F [<g16r16>a16r16]14 <g16g16>a16r16a16r16a16r16 
F [<g16r16>a16r16]3 <g16r16>g32g32<a16>g16r8g16r8g16r16 
F r16 ( g16g16 ) g16g16 ) g16g16 ) g16 ((
F < [a16r8>a16r8<a16a16a16a16r16>a16r8<a16r16]3 
F a16r8>a16r8<a16a16a16>a16r16a16r16a16a32a32c16 
F < [a16r8>a16r8<a16a16a16a16r16>a16r8<a16r16]3 
F [>a16<a16a16]4 >a16a16a16a16
F [<g16r16>a16r16]15 a16e16a16r16 
F [<g16r16>a16r16]14 [e64e32.e16<g16>]2 e64e32.<g16 [g16r16>a16r16<]3 
F g16r16>g32g32<a16>g16 r8g16r8g16r16
F r16 ( g16g16 ) g16g16 ) g16g16 ) g16 ((
F ]0

G l16 o1 soq4 v10@14
G r2 [c16r16c16r16]7 c16c16c16c16 
G [;L 
G o1
G [c16r16c16r16]23 c16r16>c16c16 
G [c16r16c16r16]23 c16r16>c16c16 
G [c16r16c16r16]14 c16c16c16r16c16r16c16r16 
G [c16r16c16r16]3 c16r16c32c32c16c16r8c16r8c16r16 
G r16 ( c16c16 ) c16c16 ) c16c16 ) c16 ((
G [c16r8c16r8c16c16c16c16r16c16r8c16r16]3 
G c16r8c16r8c16c16c16c16r16c16r16c16c32c32c16 
G [c16r8c16r8c16c16c16c16r16c16r8c16r16]3 
G [c16c16c16]4 c16c16c16c16
G [c16r16c16r16]15 c16c16c16r16
G [c16r16c16r16]14 [c64c32.c16c16]2 c64c32.c16 [c16r16c16r16]3 
G c16r16c32c32c16c16 r8c16r8c16r16
G r16 ( c16c16 ) c16c16 ) c16c16 ) c16 ((
G ]0

@e10={1,0,edcb0=160}
@e11={1,0,9e=4}
@e12={1,0,ec}

1 l8 q8 @10 k2 v12 r2r8
1 o5 e4&e [r2]3 
1 [;L
1 hf [o4 r16e16g16b16a16f+16r16g16r16<b16>e4&er16e16g16
1 b16a16f+16r16g16r16b16>ef+gb24a24f+24a24f+24e24
1 f+24g24a24b24>e24f+24gf+16e16g16f+16e16d16e16d16<a16
1 a+32&b12&b%2d16e16d16e16d16<a16b16g16a16f+16e16
1 f+16e16d+16f+16e16d+16f+16e16d+16>f+16e16d+16f+16e16d+16c16
1 <b16>c16<a16b6&b48>b16>c16<a16b4a16b16>c16]2 r16o4 e16
1 d16<b16>d16e16f+16gb16g16f+16g16f+16e16<b16>d6&d48
1 f+6&f+48a6&a48>d6&d48e16d16e16f+16gr16g
1 f+16e16d16f+r16f+e16d16e16cr16c<a16g16a16b2
1 r16e16d16<b16g4r16>e16d16e16f+4e16re16rd+2&d+  
1 @11 h15,4,0,1 v9 >b1 [b16a+16a16(]5 r16 v9 o3 b2&
1 b4&b16>d16e16f+16a16g4&g6&g48f+2>b1 [b16
1 a+16a16(]5 r16 v9 o3 b1&b6&b48>c6&c48c+6&
1 c+48d6&d48d+4 
1 @12 g6&g48>g2&g16g12f+12e12
1 d2&d4d12c12<b12>c2&c4c12<b12a12b4>d+4e4f+4 
1 @10 v12 r16<e16d16<b16>d16e16f+16gb16g16f+16g16f+16e16<b16
1 >d6&d48f+6&f+48a6&a48>d6&d48e16d16e16f+16
1 gr16gf+16e16d16f+r16f+e16d16e16cr16c<a16
1 g16a16b2r16e16d16<b16g4r16>e16d16e16f+4e16re16
1 rd+2&d+
1 ]0

2 l8 q8 \1 @10 k2 v12 r2r8
2 o4 e4&e [r2]3 
2 [;L 
2 hf [o4 r v10 e16g16b16a16f+16r16g16r16<b16>e4&er16
2 e16g16b16a16f+16r16g16r16b16>ef+gb24a24f+24a24
2 f+24e24f+24g24a24b24>e24f+24gf+16e16g16f+16e16d16e16
2 d16<a16a+32&b12&b%2d16e16d16e16d16<a16b16g16a16
2 f+16e16f+16e16d+16f+16e16d+16f+16e16d+16>f+16e16d+16f+16e16
2 d+16c16<b16>c16<a16b6&b48>b16>c16<a16b4a16b16>c32]2 
2 r32o4 e16d16<b16>d16e16f+16gb16g16f+16g16f+16e16<b16
2 >d6&d48f+6&f+48a6&a48>d6&d48e16d16e16f+16g
2 r16gf+16e16d16f+r16f+e16d16e16cr16c<a16g16
2 a16b2r16e16d16<b16g4r16>e16d16e16f+4e16re16r
2 d+2&d+12&d+%2 
2 @11 r16 v7 >b1 [b16a+16a16(]5 r16 
2 v7 o3 b2&b4&b16>d16e16f+16a16g4&g6&g48f+2
2 >b1 [b16a+16a16(]5 r16 v7 o3 b1&b6&b48>c6&
2 c48c+6&c+48d6&d48d+4 
2 @12 g6&g48>g2&g16g12
2 f+12e12d2&d4d12c12<b12>c2&c4c12<b12a12b4>d+4
2 e4f+4 
2 @10 v10 r32<e16d16<b16>d16e16f+16gb16g16f+16g16
2 f+16e16<b16>d6&d48f+6&f+48a6&a48>d6&d48e16
2 d16e16f+16gr16gf+16e16d16f+r16f+e16d16e16c
2 r16c<a16g16a16b2r16e16d16<b16g4r16>e16d16e16f+4
2 e16re16rd+2&d+12&d+%2
2 ]0

@e13={2,0,d90=16}
@e9={2,10,d90=24}

3 l16 q8 v11 @13 o7 c8c8c8c8
3 [c16c16 @9 c16 @13 c16]7 @9 c16c16c16c16 
3 [;L
3 [@13 c16c16 @9 c16 @13 c16]23 c16c16 @9 c16c16 
3 [@13 c16c16 @9 c16 @13 c16]23 c16c16 @9 c16c16 
3 [@13 c16c16 @9 c16 @13 c16]14 c16c16 @9 c8c8c8 
3 [@13 c16c16 @9 c16 @13 c16]3 c16c16 @9 c32 c32 @13 c16 
3 [@9 c16 @13 c16c16]3 @9 c16c16c16c16c16c16c16 
3 [@13 c16r16c16 @9 c16 @13 c16r16c16r16c16r16c16 @9 c16 @13 c16r16c16r16]3 
3 c16r16c16 @9 c16 @13 c16r16c16r16c16 
3 [@9 c16 @13 c16]2 @9 c16c32c32c16 
3 [@13 c16r16c16 @9 c16 @13 c16r16c16r16c16r16c16 @9 c16 @13 c16r16c16r16]3 
3 [@9 c16 @13 c16c16]4 @9 c16c16c16c16 
3 [@13 c16c16 @9 c16 @13 c16]15 
3 @9 c16 @13 c16 @9 c8 
3 [@13 c16c16 @9 c16 @13 c16]14 
3 [@9 c%3c%9 c16r16]2 c%3a%9r16 
3 [@13 c16c16 @9 c16 @13 c16]3 c16c16 @9 c32c32 @13 c16 
3 [@9 c16 @13 c16c16]3 @9 c16c16c16c16c16c16c16
3 ]0
