;[gain=1.0;name=so88e051]
#opll_mode 0
#tempo 83
#title { "Fire Element (The Captive Mage)" } ;  Music from Sorcerian / Copyright (c) Nihon Falcom Corporation

@v15 = {
;       TL FB
        38, 7,
; AR DR SL RR KL MT AM VB EG KR DT
  15, 5, 2, 3, 0,10, 0, 0, 0, 0, 1,
  10, 5, 5, 3, 1, 0, 0, 0, 0, 0, 0 }

123 v8 ; PSG Master Volume

@e8={0,0,f0=64}

F y14,33soq1@8@e8
F [;L
F v12h1,20,0,-10o3
F g24r24>g24r24<g24r24>g24<g24r24g24>
F g24<g24g24r24>g24r24<g24r24>g24r24<g24r24>g24<g24>b24b24g24g24e24e24<b24b24
F [g24r24>g24r24<g24r24>g24<g24r24g24>g24<g24g24r24>g24r24<]4
F  g24r24>g24r24<g24r24>g24<g24r24g24>g24<g24g24r24>g24r24<
F  g24r24>g24r24<g24r24>g24<g24r24g24>g24<g24g48g48>g48r48g48g48g48g48
F [<g24r24>g24r24<g24r24>g24<g24r24g24>g24<g24g24r24>g24r24<g24r24>g24r24<g24r24>g24<g24r24g24>g24<g24g24>b24g24e24]2
F ]0

G @14v8
G [;L
G o1
G g24r24>g24r24<g24r24>g24<g24r24g24>
G g24<g24g24r24>g24r24<g24r24>g24r24<g24r24>g24<g24>b24b24g24g24e24e24<b24b24
G [g24r24>g24r24<g24r24>g24<g24r24g24>g24<g24g24r24>g24r24<]4
G g24r24>g24r24<g24r24>g24<g24r24g24>g24<g24g24r24>g24r24<
G  g24r24>g24r24<g24r24>g24<g24r24g24>g24<g24g48g48>g48r48g48g48g48g48
G [<g24r24>g24r24<g24r24>g24<g24r24g24>g24<g24g24r24>g24r24<g24r24>g24r24<g24r24>g24<g24r24g24>g24<g24g24>b24g24e24]2
G ]0

BC [;L
B v12@13o2
C v10@15o3 \1
BC a24r24a24b24r24b24>c24r24c24c+24r24c+24d24r24d24r24e24>e24<e24g+24b24e24g+24e12e24e24e24e24e24e24e24
BC [a24a24b24a24>c24<a24r24e24a24a24b24a24>c24<a24>a24<a24]2
BC [>d24d24e24d24f24d24r24<a24>d24d24e24d24f24d24>d24<d24<]2
BC >e24e24f24e24g+24e24r24<b24>e24e24f24e24g+24e24<b24
BC >e12e24f24e24g+24e24r24e24>e24<e24f+24f+24g24g24g+24g+24
BC ) [[<a24r24a24a24r24a24a+12>]3<a24r24a24a24r24a24g+12>]2 (
BC ]0

@e0={0,0,@13f@3f}
@e1={0,0,@14f@9f}

DE [;L
D v11@0@e0o5
E v11@1@e1o5 \1
DE h0,1,0,2
DE c24e24a24d24f+24b24c24d+24g24c+24e24a24f24a24>d24f24g+24e24<b24g+24e24g+24b24e24g+24e24<b24g+24e24<b24g+24e24
DE [>e24c24d24e12c24d24e12c24d24e24a24b24>c24e24<<]2
DE >>d24<f24g24a12f24g24a24f24g24a24f12a24>d24f24d24<f24a24f24>e24<f24a24f24
DE >d24<f24a24f24d24f24a24d24e24g+24a24b12a24b24>d+24e24<e24b24e24g+24e24b24g+24
DE e24g+24a24b24a24b24>d24d+24e24<e24>d24<e24>c24<e24b24a24
DE [[>e24r24e24e24r24e24f12<]3>e24r24e24e24r24e24d+12<]2
DE ]0

@e9={1,0,fc0=48}
@e10={1,0,fc0=200}
@e11={1,0,fc0=200}
@e12={1,0,fc}

123 k2

1 )2 ; v12
1 [;L
1 @10o5
1 c8d8d+8e8f24r24f24r24>e24<b24g+24e24b24g+24e24<b24>g+24e24<b24g+24e24g+24b24>e24
1 @9
1 [<a24(a24a24((a24)3a24(3a24)3a24(a24)a24(a24)a24(3a24)3a24(3a24)3a24a24>]4
1 [<g+24(g+24g+24((g+24)3g+24(3g+24)3g+24(g+24)g+24(g+24)g+24(3g+24)3g+24(3g+24)3g+24g+24>]2
1 @11
1 (( [[<b24r24b24b24r24b24>c12]3<b24r24b24b24r24b24a+12>]2 ))
1 ]0

2 )1 ; v11 
2 \1[;L
2 @10o4
2 a8b8>c8c+8d24r24))n20/3c12/1((b24g+24e24<b24g+24e24<b24g+24>e24<b24g+24e24<b24>e24g+24b24
2 @9
2 [>e24(e24e24((e24)3e24(3e24)3e24(e24)e24(e24)e24(3e24)3e24(3e24)3e24e24<]2
2 [>f24(f24f24((f24)3f24(3f24)3f24(f24)f24(f24)f24(3f24)3f24(3f24)3f24f24<]2
2 [>e24(e24e24((e24)3e24(3e24)3e24(e24)e24(e24)e24(3e24)3e24(3e24)3e24e24<]2
2 @11n30 
2 ([[>e4/3f12/1<]3>e4/3d+12/1<]2)
2 ]0

3 )1 ; v11
3 \-1[;L
3 @10o4
3 e8f+8g8g+8a24r24a24r24>g+24e24<b24g+24e24<b24g+24e24b24g+24e24<b24g+24<b24>e24g+24
3 @9
3 [>>c24(c24c24((c24)3c24(3c24)3c24(c24)c24(c24)c24(3c24)3c24(3c24)3c24c24<<]2
3 [>>d24(d24d24((d24)3d24(3d24)3d24(d24)d24(d24)d24(3d24)3d24(3d24)3d24d24<<]2
3 [>b24(b24b24((b24)3b24(3b24)3b24(b24)b24(b24)b24(3b24)3b24(3b24)3b24b24<]2
3 @11n30 
3 ( [[>>c4c+12<<]3>>c4<b12<]2 )
3 ]0