;[gain=1.0;name=so88e045]
#opll_mode 0
#tempo 98
#title { "[SORCERIAN] Cavern II (The Ice Cavern)" } ;  Music from Sorcerian / Copyright (c) Nihon Falcom Corporation

@v15 = {
;       TL FB
        23, 5,
; AR DR SL RR KL MT AM VB EG KR DT
  15, 0, 0, 0, 0, 4, 0, 0, 0, 0, 0,
  10, 5, 3, 1, 0, 4, 0, 0, 0, 0, 0 }
  
#alloc {b=1000,c=1000}

123 v9 ; PSG Master Volume

9A [;L
9 @15v10 hf \1o2
A @15v10 hf \0o2
9A ; v8
9A [[a48r48b48r48>c48r48<b48r48>e48r48c48r48<b48r48>c48r48(<]4)4]2
9A [a48r48b48r48>c48r48<b48r48>f48r48c48r48<b48r48>c48r48(<]4)4
9A [a48r48b48r48>c48r48<b48r48>f48r48c48r48<b48r48>c48r48(<]3)4 r12 
9A ; v9
9A h24,3,0,1
9A >a12b12>c4&c6c8d8c12<b4&b12b8a8g12a2&a6a24r24a24r24a24r24g+24r4r8
9A ); v10
9A a4&a12a8b8>c12c4&c12c8d8c12<b4&b12b8g8d12e2&e6d4&d12d8e8f12e4&
9A e12e8a8>c12<b4&b12b8a8g+12b2&b6
9A (; v9
9A h24,3,0,1
9A a4&a12a8b8>c12c4&c12c8d8c12<b4&b12b8g8d12e2&e6d4&d12d8e8f12e4&e12e8
9A a8>c12<b4&b12b8>c8d12<b8a4&a8r6>c2&c6g6f6e8d8c12d2&d6<a2&a6>c2&c6
9A c4&c12c8d8c12c4<g1&g12>c2&c6g6f6e8d8c12d2&d12<a2&a4>c2&c6c4&c12c8d8c12c1&c6r6
9A [<e12f24g12>c24d24c24e12d24c6&c24<e12f24g12>c24d24c24e12f12e12d12d12e24c2&c24d12d+24c6&c24c24r24c24r24c24d8]2
9A a4&a12a8b8>c12<g4&g12g8b8>c12<f4&f12f8g8a12g6f6e6g6a4&a12a8b8>c12<g4&g12g8b8>c12<f+4&f+12f+8g+8a12>c6<b6a6b6
9A ]0

@e8={0,0,@14f0=4}

BC l24
BC [;L
B @13v12
C @8@e8v11
BC h1,4,0,2hf
BC o2 [a24r24a12r24ho>e8hf<a24r24a12r24g8]3
BC a24r24a12r24ho>e8hf<a24r24a12r24>a8
BC [<a24r24a12r24ho>f8hf<a24r24a12r24g8>]4
BC f24r24f8>c8<f24r24f12r24f8g24r24g8>d8
BC <g24r24g8<g8a24r24a8>e8<a24r24>a12r24g8
BC f24r24f24r24f24r24e24r6r24<
BC h7,72,0,-2e6hf
BC a24r24a12r24>e8<a24r24a12r24g8>
BC f24r24f12r24>c8<f24r24f12g24a8
BC g24r24g12r24>d8<g24r24g12<g24b8>
BC c24r24c12r24>c8<c24r24c12r24e8
BC d24r24d12r24a8>d12<a12f24a8c24r24c12e24a8>
BC c12<a12e24a8<b24r24b12r24>d+8
BC f+12d+12<b24>f+8e24r24e12r24>e8<
BC e12e12f+24g+8<a24r24a12r24>e8<
BC a24r24a12r24g8>f24r24f12r24>c8<
BC f24r24f12g24a8g24r24g12r24>d8<
BC g24r24<g12a24b8>c24r24c12r24>c8
BC d+96&e16&e96d24r24c24<g8d24r24d12r24a8>
BC d12<a12f24a8c24r24c12e24a8>
BC c12<a12e24a8<b24r24b12r24>e8
BC g+12f+24r24e24<b8a24r24a12r24>e8<
BC a24r24a24r24a24b8
BC [>c24r24c12r24>c8<c24r24c12r24<g8]2>
BC d24r24d12r24>d8<d24r24d12r24<a8>
BC d24r24d12r24>d8<d24r24d12r24e8
BC [f24r24f12r24>c8<f24r24f12r24c8]2
BC c24r24c12r24>c8<c24r24c12r24<g8>
BC c24r24>c8d8e12f24h7,72,0,-2g12hf<g24f24e24
BC [c24r24c12r24>c8<c24r24c12r24<g8>]2
BC d24r24d12r24>d8<d24r24d12r24<a8>
BC d24r24d12r24>d8<d24r24d12r24e8
BC [f24r24f12r24>c8<f24r24f12r24c8]2
BC c24r24c12r24>c8<c24r24c12r24<g8>
BC c24<g24>c12r24>c8<g24f24e24g24>c24<g24f24e24
BC [
BC c24r24c12r24>c12r24<c24r24c24r24>c24<c8<
BC a+24r24a+12r24>a+12r24<a+24r24a+24r24>a+24<a+8
BC a24r24a12r24>a12r24<a24r24a24r24>a24<a12r24
BC g+24r24g+12r24>g+12r24<g+24r24g+24r24g+24a+8>
BC ]2
BC f24r24f12r24>c12r24f12c12<a24>c12r24<e24r24e8>c8
BC e12c12<g24>c12r24<d24r24d12r24a8>
BC d12<a12f24a8c24r24c8g8>c12<g12
BC c24c24d24e24f24r24f12r24>c12r24f12c12<a24>c12r24<e24r24e8>c8
BC e12c12<g24>c12r24<d+24r24d+12r24a8>
BC d+12<a12f+24a8e24r24e8b8e12e12f+12g+12
BC ]0

F y14,33
FG [;L
F h1,72,0,-10v12o3soq1
G @14v8o1
FG l12
FG [e12r12>e12r12<]22>e12e12e12e12r4r12
FG [<e12r12>e12r12]15<e24>a24a24e24e12c24c24
FG [<e12r12>e12r12]14a24a24e24e24c24c24<a24a24e24r24>e24r24<e24>e24r12
FG [<e12r12>e12r12]14<e24r12e24>e24r24c24<a24e24>e24e24e24a24e24c24<a24
FG [e12r12>e12r12<]14e24[>e24<]7>a48a48e24<e24>a24<e24>e24<e24>c24
FG [[<e12r12>e12r12]7<e24r24e24r24e24>e24r24<e24>]2
FG [<e12r12>e12r12]14[e12]8
FG ]0

@e9={1,0,fdc}
@e11={1,0,fc}
@e12={1,0,fc0=230}
@e10={2,0,fc0=120}

123 k2

1 ( ; v9
1 [;L
1 @9o4 ; v9
1 [[a24b24>c24<b24>e24c24<b24>c24(<]4)4]2
1 [[a24b24>c24<b24>f24c24<b24>c24(<]4)4]2
1 a2&a6b2&b6>c2&c6c24r24c24r24c24r24<b24r8>
1 @10c24c24c6@9
1 ;v9
1 [<a24b24>c24<b24>e24c24<b24>c24]4
1 [<g24b24a24b24>d24<b24a24b24>]4
1 [<f24a24g24a24>d24c24<b24>c24]2
1 [<e24a24g24a24>d24c24<b24>c24]2
1 [<f+24a24g+24a24>c24<b24a24b24>]2 <
1 e24g+24b24>d24f24<b24>d24f24e24<g+24b24>e24g+24<b24>e24g+24
1 [<a24b24>c24<b24>e24c24<b24>c24]4
1 [<g24b24a24b24>d24<b24a24b24>]4
1 [<f24a24g24a24>d24c24<b24>c24]2
1 [<e24a24g24a24>d24c24<b24>c24]2
1 [<e24g+24f+24g+24b24g+24f+24g+24>]2
1 <a24>c24<b24>c24d24c24<b24g24a24r24a24r12g8
1 @11
1 g2&g6>e6c6c8<g8g12a2&a6
1 f+2&f+6a2&a6g+4&g+12g+8g+8g+12
1 g4e4&e6e24r24c24e24g8r24
1 g24r24e24g24>c6
1 @11<
1 g2&g6>e6c6c8<g8g12a2&a12f+2&f+4
1 a2&a6g+4&g+12g+8g+8g+12g1&g6r6
1 [)c12c24e12g24g24g24>c12<g24g6&g24c12c24e12g24g24g24>c12c12c12<g12a12>c24<a2&a24g+12>c24<g+6&g+24g+24r24g+24r24g+24a+8]2
1 @12> ; v11
1 f4&f12f8f8f12e4&e12e8e8e12d4&d12d8d8f12e6e6c6e6
1 @12
1 f4&f12f8f8f12e4&e12e8e8e12d+4&d+12d+8d+8f+12a6g+6f+6g+6
1 (2 ; v9
1 ]0

2 ( ; v9
2 [;L
2 @9 o4
2 [[c24e24a24e24>c24<a24e24a24(]4)4]2
2 [[c24f24a24f24>c24<a24f24a24(]4)4]2
2 f2&f6g2&g6a2&a6a24r24a24r24a24r24g+24r4r8
2 ) ; v10
2 [c24e24a24e24>c24<a24e24a24]2[f24a24f24a24a24a24f24a24]2
2 [<b24>g24d24g24b24g24d24g24]2[c24e24e24e24g24e24e24e24]2
2 [d24f24d24f24f24f24f24f24]2[c24c24c24c24a24a24e24a24]2
2 [d+24f+24d+24f+24f+24f+24f+24f+24]2<b24>e24
2 [g+24]6g+24<b24>e24g+24b24e24g+24b24
2 [c24e24a24e24>c24<a24e24a24]2[f24a24f24a24a24a24f24a24]2
2 [<b24>g24d24g24b24g24d24g24]2[c24e24e24e24g24e24e24e24]2
2 [d24f24d24f24f24f24f24f24]2
2 [c24c24c24c24a24a24e24a24]2
2 [<b24>e24e24e24g+24e24e24e24]2
2 e24a24e24a24a24a24a24a24e24r24e24r12d8
2 @11
2 e2&e6>c6r6<g8r8e12f+2&f+6d2&d6f2&f6f4&f12f8f8f12e4c4&c6c24r24<g24>c24e8r24e24r24c24e24g6
2 e2&e6>c6r6<g8r8e12f+2&f+12d2&d4f2&f6f4&f12f8f8f12e1&e6r6
2 [)<g12g24>c12e24e24e24g12e24e6&e24<g12g24>c12e24e24e24g12g12g12e12e12a24e2&e24d+12g+24d+6&d+24d+24r24d+24r24d+24f8]2 
2 ; v12
2 @12
2 [>c4&c12c8c8c12<]2a4&a12a8a8>d12c6c6<g6>c6
2 [c4&c12c8c8c12]2<a4&a12a8a8>d+12e6e6e6e6
2 (3 ; v9
2 ]0

3 ( ; v9
3 [;L
3 @9\1o4
3 [[a24b24>c24<b24>e24c24<b24>c24(<]4)4]2
3 [[a24b24>c24<b24>f24c24<b24>c24(<]4)4]2
3 a2&a6b2&b6>c2&c6c24r24c24r24c24r24<b24r4r8
3 [a24b24>c24<b24>e24c24<b24>c24<]4
3 [g24b24a24b24>d24<b24a24b24]4 [f24a24g24a24>d24c24<b24>c24<]2
3 [e24a24g24a24>d24c24<b24>c24<]2[f+24a24g+24a24>c24<b24a24b24]2
3 e24g+24b24>d24f24<b24>d24f24e24<g+24b24>e24g+24<b24>e24g+24
3 [<a24b24>c24<b24>e24c24<b24>c24]4
3 [<g24b24a24b24>d24<b24a24b24>]4[<f24a24g24a24>d24c24<b24>c24]2
3 [<e24a24g24a24>d24c24<b24>c24]2[<e24g+24f+24g+24b24g+24f+24g+24>]2
3 <a24>c24<b24>c24d24c24<b24g24a24r24a24r12g8
3 @11
3 g2&g6>e6c6c8<g8g12a2&a6f+2&f+6a2&a6g+4&g+12g+8g+8g+12g4e4&e6e24r24c24e24g8r24g24r24e24g24>c6<
3 g2&g6>e6c6c8<g8g12a2&a12f+2&f+4a2&a6g+4&g+12g+8g+8g+12g1&g6r6
3 [)c12c24e12g24g24g24>c12<g24g6&g24c12c24e12g24g24g24>c12c12c12<g12a12>c24<a2&a24g+12>c24<g+6&g+24g+24r24g+24r24g+24a+8]2
3 ; v11
3 @12 >
3 f4&f12f8f8f12e4&e12e8e8e12d4&d12d8d8f12e6e6c6e6
3 f4&f12f8f8f12e4&e12e8e8e12d+4&d+12d+8d+8f+12a6g+6f+6g+6
3 (2 ; v9
3 ]0