;[gain=1.0;name=so88e020]
#opll_mode 0
#lfo_mode 1
#tempo 87
#title { "Shadow Dragon (The Tower of Thieves)" } ;  Music from Sorcerian / Copyright (c) Nihon Falcom Corporation

@v15 = {
;       TL FB
        36, 7,
; AR DR SL RR KL MT AM VB EG KR DT
  15, 3, 2, 2, 0,10, 0, 0, 0, 0, 1,
  15, 6, 3, 1, 0, 0, 0, 0, 0, 0, 1 }

@e9={0,0,fc0=96}
@e10={0,0,f}

9A q8v11h1,3,0,1l24
9A [;L
9 @13 o2 v12 \-1
A @15 o3 v12 \0
9A [a24>a24g24a24r24e24d+24d24c24<a24g24a24r24>e24d24e24<]4
9A [>d24a24g24a24r24f24e24d+24d24<a24g24a24r24>d+24d24<a24]2
9A >e24<e24r24>e24d24e24<b24g+24e24r24e24e24e24>e24<e24>e24<d24>d24r24<a24>c24d24<a24f24d24r24d24d24
9A d24>d24<d24>d24[<a24a24a24r24a24a24r24a24r24a24a24r24a24a24r24a24>]2
9A ]0

@e0={0,0,f0=48}

F y14,32q8l24v12h0,40,0,-16 soq1
F [;L
F o4 @0@e0
F [c24c24c24c24>c24r24r6<c24c24c24c24>c24r24<]6
F [c24c24>e24c24<c24c24>e24c24<c24c24>c24<c24c24>e24c48c48<c24]2
F [c24c24c24c24>c24r24< y14,0 )2 @9hf<<[a24a24)]2>> (4 ho@0y14,32 c24c24c24c24>c24r24<]2
F ]0

G q8v10@14
G [;L
G o1\2
G [c24c24c24c24>c12r6<c24c24c24c24>c12<]6
G [c24c24>e24c24<c24c24>e24c24
G <c24c24>c24<c24c24>e24c48c48<c24]2
G [c24c24c24c24>c12< @10 hf[a24)]4 (4 ho@14 c24c24c24c24>c12<]2
G ]0

BC q8\-1 [;L
B @13 o2 v11 \-2
C @15 o3 v12 \-1
BC [a24>a24g24a24r24e24d+24d24c24<a24g24a24r24>e24
BC d24e24<]4[>d24a24g24a24r24f24e24d+24
BC d24<a24g24a24r24>d+24
BC d24<a24]2>e24<e24r24>e24d24e24<b24g+24e24r24e24e24e24>e24
BC <e24>e24
BC <d24>d24r24<a24>c24d24<a24f24d24r24d24d24d24>d24
BC <d24>d24[<a24a24a24r24a24a24r24a24
BC r24a24a24r24a24a24r24a24
BC >]2
BC ]0

1 q8v10@9
1 [;L
1 o5
1 [c24e24d24e24<a24>e24d24e24<b24>e24d24e24<e24>e24d24e24]4
1 [d24a24g24a24e24a24g24a24f24a24g24a24d24a24g24a24]2<
1 b24e24d24e24g+24e24d24e24g+24r24g+24g+24g+24e24d24<b24>
1 a24d24c+24d24f24d24c+24d24f24r24f24f24f24d24c+24<a24
1 [e24e24e24r24e24e24r24e24r24e24e24r24e24e24r24e24]2
1 ]0

2 q8\1v8@9[;L
2 o5r16
2 [c24e24d24e24<a24>e24d24e24<b24>e24d24e24<e24>e24d24e24]4
2 [d24a24g24a24e24a24g24a24f24a24g24a24d24a24g24a24]2<
2 b24e24d24e24g+24e24d24e24b48
2 @10(([>>>>g96f+96f96<<<<]6))
2 @9 e24d24<b24>a24d24c+24d24f24d24c+24d24f48
2 @10(([>>>>e96d+96d96<<<<]6))
2 @9d24c+48
2 [<c24c24c24r24c24c24r24c24r24c24c24r24c24c24r24c24>]2
2 ]0

@e11={3,0,fc80=12}
@e12={3,15,fc0=12}
@e13={3,15,fc0=48}
@e14={2,15,c}

3 q8v11@11[;L
3 o5
3 [@11c24c24c24c24@12c24@11c24@12n10c24c24@13n30c12@11c24c24c24c24@12n15c24@11c24]6
3 [@11c24c24c24@12n15c24@11c24@12n10c24c24n15c24@11c24@12c24@12n15c24@11c24@12c24@12n15c24@11c24@12n5c24]2
3 [@11c24c24c24c24@12n15c24@11c24@12n10c24c24@14n3c12@11c24c24c24c24@12n15c24@11c24]2
3 ]0

