;[gain=1.0;name=so88e044]
#opll_mode 0
#tempo 76
#title { "Cavern I (The Ice Cavern)" } ;  Music from Sorcerian / Copyright (c) Nihon Falcom Corporation

123 v9 ; PSG Master Volume

@v15 = {
;       TL FB
        22, 0,
; AR DR SL RR KL MT AM VB EG KR DT
  15, 4, 2, 1, 0, 3, 0, 0, 0, 0, 1,
  13, 2,15, 6, 0, 1, 0, 0, 1, 0, 1 }

@v16 = {
;       TL FB
        12, 0,
; AR DR SL RR KL MT AM VB EG KR DT
  15, 3, 1, 0, 0, 1, 0, 0, 0, 0, 0,
  15, 0, 0, 6, 0, 2, 0, 0, 1, 0, 0 }
  
@v17 = {
;       TL FB
        12, 4,
; AR DR SL RR KL MT AM VB EG KR DT
  15, 0, 0, 0, 0, 1, 0, 0, 0, 0, 1,
  15, 0,15, 7, 0, 2, 0, 0, 1, 0, 1 }

@e0={0,0,@6f0=200}  
@e1={0,0,f:8y2,11f:2y2,10f:2y2,9f}

*0={@15   v11}
*1={@7@e0 v11}

*4={@17@e1 h16,3,0,1 v12 }
*5={@4     h16,3,0,1 v11 }

;BCDEF123 !

9A l8 q8 
9 *0 o6 
A *1 o6 \1
9A [e24d24c24f12e24d24e12d24c24d12c24<b12>]2
9A d24c24<b24>e12d24c24d12c24<b24>d12e24f12e24<b24>d24e12d24e24g+12e24g+24b12>c24d12<
9A [;L
9 *0 o6 hf 
A *1 o6 hf \1
9A [e24d24c24f12e24d24e12d24c24d12c24<b12>]2 
9A d24c24<b24>e12d24c24d12c24<b24>d12e24f12e24<b24>d24e12d24e24g+12e24g+24b12>c24d12< 
9A [e24d24c24f12e24d24e12d24c24d12c24<b12|>]3 
9A a24b24>c24e12d24c24<b24>a24b24>c24e12d24c24<b24
9 @6  v10 h20,3,0,1 o5 >
A @16 v11 h20,3,0,1 o5
9A a2a24b24>c12<b48>c48<b4&b6&b24a12g12a2&a6&a%2&a+%2&b%2&>c%2&c+%2&d%2&
9A d+%2&e2&e12&e%2<a2a24b24>c12<b48>c48<b4&b6&b24g12d12e4&e12g4&g12b2&b12r12a2a24
9A b24>c12<b48>c48<b4&b6&b24a12g12a2&a6&a%2&a+%2&b%2&>c%2&c+%2&d%2&d+%2&e2&
9A e12&e%2<a2a24b24>c12d4&d12e6g6a1
9 *0 o6
A *1 o6
9A e24g24a24>c24d24c24<b24g24 
9 *0 o6
A *1 o6 
9A [e24d24c24f12e24d24e12d24c24d12c24<b12>]2 
9A d24c24<b24>e12d24c24d12c24<b24>d12e24f12
9A e24<b24>d24e12d24e24g+12e24g+24b12>c24d12< 
9A [e24d24c24f12e24d24e12d24c24d12c24<b12>]2 
9A d24c24<b24>e12d24c24d12c24<b24>d12e24f12e24<b24>d24e12d24e24g+12e24g+24b12>c24d12 
9 *4 o5 
A *5 o5
9A e2&e6e6&e24&e%2&f%2&f+%2&g%2&g+%2&a%2&a+%2&b%2&>c%2&c+%2&d%2&d+%2&e4&e24&d+%2&d%2&c+%2&
9A c%2&<b24>c24<b4>d24e24d4<b24>c24<b4>d24e24f4>e24&d24
9A d24c24c24&<b24b24a24>d24&c24c24<b24b24a24a24e24
9A >c24&<b24b24a24a24e24e24d24c24<b24b24a24ab24
9A >c4&c12c24<b24>c6c12d4&d12<b24a24g6e12a1&a6
9A r6
9A ]0

BC l8 q8 
B *0 o6 \1
C *1 o6 \0
BC [c24<b24a24>d12c24<b24>c12<b24a24b12a24g12|>]2 
BC b24a24g24>c12<b24a24b12a24g24b12>c24d12<b24e24a24b12a24b24>e12<b24>e24g+12a24b12 
BC [;L 
B *0 o6 hf
C *1 o6 hf
BC [c24<b24a24>d12c24<b24>c12<b24a24b12a24g12|>]2 
BC b24a24g24>c12<b24a24b12a24g24b12>c24d12<b24e24a24b12a24b24>e12<b24>e24g+12a24b12 
BC [c24<b24a24>d12c24<b24>c12<b24a24b12a24g12|>]3
BC e24g24a24>c12<b24a24g24>e24g24a24>c12<b24a24g24
B @6  v10 h20,3,0,1 o5 > 
C @16 v11 h20,3,0,1 o5
BC f2f24g24a12g2d6e2&e6&e%2&f%2&f+%2&g%2&g+%2&a2&a12&a%2&e48 
BC f2f24g24a12g2d12<b12>c4&c12e4&e12g2&g12r12
BC f2f24g24a12g2d6e2&e6&e%2&f%2&f+%2&g%2&g+%2&a2&a12&a%2&e48
BC f2f24g24a12b4&b12>c6d6e1
B *0 o5
C *1 o5
BC a24>b24c24e24f24e24d24<b24>
B *0 o6
C *1 o6
BC [c24<b24a24>d12c24<b24>c12<b24a24b12a24g12|>]2 
BC b24a24g24>c12<b24a24b12a24g24b12>c24d12<b24e24a24b12a24b24>e12<b24>e24g+12a24b12 
BC [c24<b24a24>d12c24<b24>c12<b24a24b12a24g12|>]2 
BC b24a24g24>c12<b24a24b12a24g24b12>c24d12<b24e24a24b12a24b24>e12<b24>e24g+12a24b12 
B *4 o4
C *5 o4
BC a2&a6a6&a%2&a+%2&b%2&>c%2&c+%2&d%2&d+%2&e%2&f%2&f+%2&g%2&g+%2&a4&ag24
BC a24g6&g24&g+%2&a%2&a+%2&b24&b%2>c24<b4
BC g+24a24g+4b24>c24d4c24&<b24b24a24a24e24e24e24a12
BC a24e24e24c24c24c24e24e24e24e24e24<a24a24a24e24e24
BC e24e24ee24a4&a12a24g24a4b4&b12d24c24<b4
BC >c1&c6r6
BC ]0

DEF l8 q8 
D @5  v12 o1 >
E @6  v12 o1 \2 >> 
F @13 v12 o1 \1 >>
DEF so q5
DEF a2&a12&a12 f2&f12&f12 g2&g12&g12 e12e12e12e12e12e12e12e12 
DEF [;L 
DEF [a12]8 [f12]8 [g12]8 [e12]8 
DEF [a12]8 [f12]8 [g12]8 [a12]4 a24b24>c24e12d24c24<b24 
DEF [f12]8 [g12]8 [a12]12 a24b24>c24e12d24c24<b24 
DEF [f12]8 [g12]8 > [c12]16 <
DEF [f12]8 [g12]8 [a12]12 a24b24>c24e12d24c24<b24 
DEF [f12]8 [g12]8 [a12]12 >a24g24e24g24e24d24c24<b24 
DEF [a12]8 [f12]8 [g12]8 [e12]8 
DEF [a12]8 [f12]8 [g12]8 [e12]8 
DEF a2&a12&a12 f2&f12&f12 g2&g12&g12 e2&e12&e12 
DEF a2&a12&a12 g2&g12&g12 f2&f12&f12 g2&g12&g12
DEF v5 [a12)]8 v12 a12a12a12a12a12a12a12a12
DEF ]0

@e9={1,0,fd0=190}
@e10={1,0,fd}

1 l8 q8 @9 r24 o5 
1 [e24d24c24f12e24d24e12d24c24d12c24<b12>]2 
1 d24c24<b24>e12d24c24d12c24<b24>d12e24f12 
1 e24<b24>d24e12d24e24g+12e24g+24b12>c24d24
1 )3
1 [;L 
1 h20,3,0,1 @10 o5 ;v12
1 c2d12e12gf<a4>c6<b2>c12d12<b48&>c48<b4&b6&b24e6>c2d12e12gf<a4>e6d4&d12<b6g6a2&a6 
1 hf ( ;v11
1 [a24f24c24f12c24<a24>c24]2 [b24g24d24g12d24<b24>d24]2 [>c24<a24e24a12e24c24e24]4 
1 [a24f24c24f12c24<a24>c24]2 [b24g24d24g12d24<b24>d24]2 >g24f24e24f12e24c4<g24f24e24f12 e24c4g24c24e24g24b24e24g24b24 
1 [a24f24c24f12c24<a24>c24]2 [b24g24d24g12d24<b24>d24]2 [>c24<a24e24a12e24c24e24]4 > 
1 [a24f24c24f12c24<a24>c24]2 [b24g24d24g12d24<b24>d24]2 [<a24b24>c24e24]8 
1 (3 ;v8 
1 r24 
1 [e24d24c24f12e24d24e12d24c24d12c24<b12>]2 
1 d24c24<b24>e12d24c24d12c24<b24>d12e24f12e24<b24>d24e12d24e24g+12e24g+24b12>c24d12<
1 [e24d24c24f12e24d24e12d24c24d12c24<b12>]2 
1 d24c24<b24>e12d24c24d12c24<b24>d12e24f12e24<b24>d24e12d24e24g+12e24g+24b12>c24d24 
1 o4 
1 [a24b24>c24e24d24<b24g24e24]4 [g24b24>c24d24g24d24<b24a24]2 <
1 e24g+24b24g+24b24>de24g+24b24g+24b24>d<e4&e12a6b6e4&e12a6c6f24c24
1 f4f24e24f4g24d24g4g24f24d6c24<b24>c1&c6r6
1 )4 ;v12
1 ]0

2 l8 q8 \1 @9 r48 o5 
2 [e24d24c24f12e24d24e12d24c24d12c24<b12>]2 
2 d24c24<b24>e12d24c24d12c24<b24>d12e24f12 
2 e24<b24>d24e12d24e24g+12e24g+24b12>c24d16
2 )2
2 [;L
2 h20,3,0,1 @10 o5 ;v11 
2 r24
2 c2d12e12gf<a4>c6<b2>c12d12<b48&>c48<b4&b6&b24e6>c2d12e12gf<a4>e6d4&d12<b6g6a2&a 
2 hf (2 ;v9 
2 r24 [a24f24c24f12c24<a24>c24]2 [b24g24d24g12d24<b24>d24]2 [>c24<a24e24a12e24c24e24]4 
2 [a24f24c24f12c24<a24>c24]2 [b24g24d24g12d24<b24>d24]2 >g24f24e24f12e24c4<g24f24e24f12 e24c4g24c24e24g24b24e24g24b24 
2 [a24f24c24f12c24<a24>c24]2 [b24g24d24g12d24<b24>d24]2 [>c24<a24e24a12e24c24e24]4 > 
2 [a24f24c24f12c24<a24>c24]2 [b24g24d24g12d24<b24>d24]2 [<a24b24>c24e24]7 <a24b24>c24 
2 r48 ;v9
2 [e24d24c24f12e24d24e12d24c24d12c24<b12>]2 
2 d24c24<b24>e12d24c24d12c24<b24>d12e24f12e24<b24>d24e12d24e24g+12e24g+24b12>c24d12< 
2 [e24d24c24f12e24d24e12d24c24d12c24<b12>]2 
2 d24c24<b24>e12d24c24d12c24<b24>d12e24f12e24<b24>d24e12d24e24g+12e24g+24b12>c24d16 
2 r24 o4 
2 [a24b24>c24e24d24<b24g24e24]4 [g24b24>c24d24g24d24<b24a24]2 <
2 e24g+24b24g+24b24>de24g+24b24g+24b24>d<e4&e12a6b6
2 e4&e12a6c6f24c24f4f24e24f4g24d24g4g24f24d6c24<b24>c1r4r24
2 )2
2 ]0

@e11={2,0,da0=20}
@e12={2,10,da0=20}

3 l8 q8 @11 o4 r2r16r64r2r16r64r2r16r64r4r64 (2; v7 
3 [c12)]8 
3 (3; v12
3 [;L
3 [c12c12@12c12@11c12]15 c24c24c24c12 @12c24c24c24 @11
3 [c12c12@12c12@11c12]30 @12 c12c12c12c12c24c24c24c24c24c24c24c24 @11
3 ; v12
3 [c12c12@12c12@11c12]15 @12c12c12@11c24c24@12c12 
3 (4; v8
3 @9 \1 o4
3 [a24b24>c24e24d24<b24g24e24]4 [g24b24>c24d24g24d24<b24a24]2 
3 <e24g+24b24g+24b24>de24g+24b24g+24b24>d<e4&e12a6b6e4&e12a6c6f24c24f4f24e24f4g24d24g4g24f24d6c24<b24 
3 @11 (3 [c12)]8 c12c12c12c12@12c12c12c12c24c24 @11 ( ; v12
3 ]0