;[gain=1.0;name=so88e050]
#opll_mode 0
#tempo 106
#title { "[SORCERIAN] Underground Fortress (The Captive Mage)" } ;  Music from Sorcerian / Copyright (c) Nihon Falcom Corporation

@v15 = {
;       TL FB
        41, 0,
; AR DR SL RR KL MT AM VB EG KR DT
  15, 3,14, 0, 0,14, 0, 0, 0, 1, 0,
  15, 3,15, 7, 0, 4, 0, 0, 0, 0, 0 }

123 v9

;9ABCDEFG !

@e0={0,0,@13f@3f}
@e1={0,0,@14f@9f}

9A [;L
9 @2 v11o5\0
A @15v11o5\1
9A h30,4,0,1
9A [f8e2&e24e8d2&d24]4
9A <a4&a12>a8g8f12e24f24e2&e12e4&e12d8c8<g12a4&a12a+6>c6
9A <a4&a12>a8g8f12e24f24e2&e12e4&e12e8f8g12a2&a6
9A [>d4&d12f8a8>c12<b4&b12a6g6a1&a4&a12<]2
9A d4c24d24e4d24e24f4e24f24g4f24g24a2&a6a6g6e8f8g12
9 @0@e0 \0
A @1@e1 \1
9A h20,4,0,1
9A <d1d24<a24>c24d24f24e24d24c24d1d24<a24>c24d24f24g24a24>c24
9A d1c+48&d12&d48c8<g12a1&a4&a12
9 @2 \0
A @15\1
9A [>d4c24d24e4d24e24f4e24f24g4f24g24<]2>
9A a+4<a+4>a+12>c4&c6<a+6g+6a4d4a4>a12g12a12
9A f12g12e12f12<a+4<a+4>a+12>c4&c6<a+6>c+6d4<a1&a12
9A (2
9A [r12d24r24c24d8d24r24d24r24c24d8r12c24r24<a+24>c8c24r24c24r24<a+24>c8]2
9A d8c8<a+2&a+4a+6>c6d8c8<a+12>e8d8c12f8e8d12g8f8e12
9A ]0

@e8={0,0,@14fdc8520}

BC l24
BC [;L
B @13v12o4 <
C @14v11o4@e8 <
BC [[d24d24d24d24r12d24d24]7d24<a24>c24d24f24e24c24d24]2
BC [d24d24d24d24r12d24d24]2[c24c24c24c24r12c24c24]4
BC <a+24a+24a+24a+24r12a+24a+24a+24a+24a+24a+24>c24c24c24c24
BC [d24d24d24d24r12d24d24]2[c24c24c24c24r12c24c24]4
BC <a+24a+24a+24a+24r12a+24a+24a+24a+24a+24a+24>c24c24c24c24
BC [[d24d24d24d24r12d24d24]7 c24<g24>c24e24g24f24e24c24]2
BC [<a+24a+24r24a+24a+24r24a+24a+24>c24c24r24c24c24r24c24c24]2
BC <a+24a+24r24a+24a+24r24a+24a+24>a+24<a+24a+24>a+24<a+24a+24>a+24<a+24>c24c24c24c24c24r8c8c8c12
BC [d24d24d24d24r12d24d24d24d24d24d24>d24<d24d24d24]8
BC [<a+24a+24r24a+24a+24r24a+24a+24>c24c24r24c24c24r24c24c24]4
BC [[d+24d+24d+24d+24r12d+24d+24]4[d24d24d24d24r12d24d24]4]2
BC d24d24d24d24f24e24f24g24a24<a24>d24f24a24g24f24d24c24c24c24c24e24c24e24f24g24<g24>c24e24g24f24e24c24d24d24<a24>d24f24e24f24g24
BC a24<a24>d24f24a24g24f24g24c24c24>c24<c24e24c24e24f24g24<g24>c24d24e24c24>c24<c24<a+24a+24r24a24a24r24g24g2&g6&g24g6a6
BC a+24>a+24<a+24a24>a24<a24g24>g24c24>c24<c24<a+24>a+24<a+24a24>a24d24>d24<d24c24>c24<c24<a+24>a+24<a24a24>a24<a24>g24<a24>a24<a24
BC ]0

F l24 y14,33soq1
F [;L
F v12h1,72,0,-7o3
F [[e24r24r12>e24r24r12<]7e24>>c24c24c24<g48g48g24c24c24<]2
F [e24r24r12>e24r24r12<]7>g24g24g12c24c24c12
F [<e24r24r12>e24r24r12]7g24g24g12c24c24c12
F [[<e24r24r12>e24r24r12]7g48g48g12g12e24e24c24]2
F [<g24g24r24g24>a12e24e24r24e24e24r24c24c24c24c24]3<
F g24g24r24g24>g12r12g8g8g12
F [<e24r24r12>e24r24r12]7g24c12c12g12c48c48
F [<e24r24r12>e24r24r12]8[<g24g24r24g24>a12e24e24r24e24e24r24c24c24c24c24]3<
F g24g24r24g24>a48a48a24a24a24e48e48e24e24e24c48c48c24c24c24
F [[<e24r24r12>e24r24r12]7g24g12c24c12<g24g24>]2
F [<e24r24r12>e24r24r12<e24e24r24e24>e24r24r12]4
F a24a24r24e24e24r24c24c24r24a48a48a24a24e24e24c24c24<e24e24>e24<e24>e24e8e6e6
F [<e24r24r12>e24r24r12]3<e24>e24e24e24e24e24e24e24
F ]0

G l24 @14q3
G [;L
G v8o1
G [[c24r24r12c24r24r12]7c24c24c24c24c48c48c24c24c24]2
G [c24r24r12c24r24r12]7c24c24c12c24c24c12
G [c24r24r12c24r24r12]7c24c24c12c24c24c12
G [[c24r24r12c24r24r12]7c48c48c12c12c24c24c24]2
G [c24c24r24c24c12c24c24r24c24c24r24c24c24c24c24]3<
G c24c24r24c24c12r12c8c8c12
G [c24r24r12c24r24r12]7c24c12c12g12c48c48
G [c24r24r12c24r24r12]8[c24c24r24c24c12c24c24r24c24c24r24c24c24c24c24]3<
G c24c24r24c24c48c48c24c24c24c48c48c24c24c24c48c48c24c24c24
G [[c24r24r12c24r24r12]7c24c12c24c12c24c24]2
G [c24r24r12c24r24r12c24c24r24c24c24r24r12]4
G c24c24r24c24c24r24c24c24r24c48c48c24c24c24c24c24c24c24c24c24c24c24c8c6c6
G [c24r24r12c24r24r12]3c24c24c24c24c24c24c24c24
G ]0

@e9={1,0,fc0=192}
@e10={1,0,fc}
@e11={1,0,fc0=64}
@e12={2,0,fc0=64}

1 ; v10
1 [;L
1 @9o4
1 [a8g2&g24g8f4&f6&f24e24f24]4
1 @10
1 f4&f12>f8e8d12c24d24c2&c12c4&c12<g8g8g12f4&f12
1 @11
1 f24f24f24r24g24g24g24r24
1 @10
1 f4&f12>f8e8d12c24d24c2&c12c4&c12c8d8e12f2&f6
1 [<a4&a12>d8f8a12g4&g12f6e6f1&f4&f12]2
1 <a+4a24a+24>c4<a+24>c24d4c24d24e4d24e24f2&f6f6e6c8d8e12
1 @9
1 [<a8g2&g24g8f4&f6&f24e24f24>]4[<a+4a24a+24>c4<a+24>c24d4c24d24e4d24e24]2
1 [f+8<f+8>f+12g+8<g+8>g+12a+12g+24f+24g+12f+24f24f+12f24d+24f12d+24c+24d24r24d24r12d8f12e12f12g12d24r24d24r12d8f12e12c12d12]2
1 @12
1 ( [n0c24r24c24c24n10c24n0r24c24c24]8 )
1 @10
1 (( <a8g8f2&f4f6g6a8g8f12>c8<a+8a12>d8c8<a+12>e8d8c12 ))
1 ]0

2 ; v10
2 [;L
2 \1@9o4
2 [a8g2&g24g8f4&f6&f24e24f24]4
2 @10
2 f4&f12>f8e8d12c24d24c2&c12c4&c12<g8g8g12f4&f12
2 @11
2 f24f24f24r24g24g24g24r24
2 @10
2 f4&f12>f8e8d12c24d24c2&c12c4&c12c8d8e12f2&f6
2 [<a4&a12>d8f8a12g4&g12f6e6f1&f4&f12]2
2 <a+4a24a+24>c4<a+24>c24d4c24d24e4d24e24f2&f6f6e6c8d8e12
2 @9
2 [<a8g2&g24g8f4&f6&f24e24f24>]4
2 [<a+4a24a+24>c4<a+24>c24d4c24d24e4d24e24]2
2 [f+8<f+8>f+12g+8<g+8>g+12a+12g+24f+24g+12f+24f24f+12f24d+24f12d+24c+24d24r24d24r12d8f12e12f12g12d24r24d24r12d8f12e12c12d12]2
2 [r12<a24r24g24a8a24r24a24r24g24a8r12g24r24f24g8g24r24g24r24f24g8>]2
2 @10
2 <a8g8f2&f4f6g6a8g8f12>c8<a+8a12>d8c8<a+12>e8d8c12
2 ]0

3 ) ; v11
3 [;L
3 \1@9o5
3 [d8c2&c24c8<a2&a24>]4
3 @10
3 <d4&d12>d8c8<a12g24a24g2&g12g4&g12r2r16r%20
3 @11
3 d24d24d24r24e24e24e24r24
3 @10
3 d4&d12>d8c8<a12g24a24g2&g12g4&g12g8a8>c12d2&d6
3 [<f4&f12a8>d8f12e4&e12d6c6d1&d4&d12]2
3 <f4e24f24g4f24g24a4g24a24>c4<a+24>c24d2&d6d6c6<a8a+8>c12
3 @9
3 [d8c2&c24c8<a2&a24>]4[<f4e24f24g4f24g24a4g24a24>c4<a+24>c24]2
3 [c+8<c+8>c+12d+8<d+8>d+12f+12f24d+24f12d+24c+24d+12c+24c24c+12c24<a+24a24r24a24r12a8>d12c12d12e12<a24r24a24r12a8>d12c12g12a12]2
3 [r12<f24r24e24f8f24r24f24r24e24f8r12e24r24d24e8e24r24e24r24d24e8>]2
3 @10
3 <f8e8d2&d4d6e6f8e8d12g8f8e12a8g8f12a8a8a12
3 ]0
